X: 41791
T: Velvet Jacket, The
R: polka
M: 2/4
K: Gmajor
B2 GB|B/A/B/d/ ed|BG AG|FE E2|A2 ce|dB G>B|Ae ge|fd dc|
B2 GB|B/A/B/d/ ed|BG AG|FE E2|A2 ce|dB G>F|Ec AF|BG G2||
c>e gG|B/A/B/c/ dB|Ac BF|AG B2|c>e gd|dg g>f|e^c eg|fd dB|
c>e gG|B/A/B/c/ dB|^GB eB|dc cB|A>B c/B/A|G>A B/A/G|F2 EF|AG G2|

